svg/servicenow-logo.svg

<?xml version="1.0" encoding="UTF-8"?>
<svg xmlns="http://www.w3.org/2000/svg" xmlns:xlink="http://www.w3.org/1999/xlink" width="211.199997" height="32" viewBox="0 0 211.199997 32">
<path fill-rule="evenodd" fill="rgb(0%, 0%, 0%)" fill-opacity="1" d="M 51.234375 10.226562 C 49.125 10.21875 47.082031 10.957031 45.460938 12.304688 L 45.460938 10.4375 L 40.191406 10.4375 L 40.191406 30.960938 L 45.671875 30.960938 L 45.671875 17.839844 C 46.863281 16.289062 48.6875 15.355469 50.644531 15.300781 C 51.394531 15.257812 52.140625 15.371094 52.84375 15.628906 L 52.84375 10.367188 C 52.3125 10.273438 51.773438 10.226562 51.234375 10.226562 M 3.457031 24.699219 C 5.019531 26.023438 7.007812 26.742188 9.054688 26.726562 C 10.53125 26.726562 11.667969 26.007812 11.667969 24.992188 C 11.667969 21.902344 1.761719 23.003906 1.761719 16.402344 C 1.761719 12.46875 5.558594 10.015625 9.601562 10.015625 C 12.058594 10.019531 14.464844 10.742188 16.515625 12.09375 L 13.953125 16.0625 C 12.820312 15.207031 11.449219 14.71875 10.03125 14.667969 C 8.515625 14.667969 7.25 15.261719 7.25 16.320312 C 7.25 18.984375 17.15625 17.925781 17.15625 25.035156 C 17.15625 28.972656 13.316406 31.382812 9.019531 31.382812 C 6.058594 31.355469 3.183594 30.394531 0.800781 28.640625 Z M 37.851562 20.507812 C 37.851562 14.796875 33.851562 10.015625 28.195312 10.015625 C 22.125 10.015625 18.246094 15.007812 18.246094 20.71875 C 18.125 23.589844 19.21875 26.382812 21.253906 28.410156 C 23.292969 30.4375 26.089844 31.515625 28.960938 31.382812 C 32.15625 31.425781 35.214844 30.082031 37.347656 27.703125 L 34.230469 24.570312 C 32.910156 26.027344 31.050781 26.882812 29.085938 26.941406 C 26.25 27.027344 23.832031 24.902344 23.558594 22.078125 L 37.726562 22.078125 C 37.816406 21.558594 37.855469 21.035156 37.851562 20.507812 M 23.8125 18.054688 C 24.21875 15.957031 26.058594 14.445312 28.195312 14.457031 C 30.261719 14.460938 32 16.003906 32.246094 18.054688 Z M 65.902344 22.960938 L 71.511719 10.4375 L 77.203125 10.4375 L 67.800781 30.960938 L 64.007812 30.960938 L 54.605469 10.4375 L 60.296875 10.4375 Z M 81.804688 0.800781 C 83.742188 0.835938 85.285156 2.425781 85.261719 4.363281 C 85.246094 5.789062 84.371094 7.0625 83.046875 7.589844 C 81.722656 8.117188 80.210938 7.792969 79.214844 6.773438 C 78.222656 5.746094 77.949219 4.226562 78.515625 2.921875 C 79.082031 1.613281 80.378906 0.777344 81.804688 0.800781 "/>
<path fill-rule="nonzero" fill="rgb(0%, 0%, 0%)" fill-opacity="1" d="M 79.0625 10.4375 L 84.542969 10.4375 L 84.542969 30.960938 L 79.0625 30.960938 Z M 79.0625 10.4375 "/>
<path fill-rule="evenodd" fill="rgb(0%, 0%, 0%)" fill-opacity="1" d="M 107.199219 26.769531 C 105.09375 29.785156 101.597656 31.523438 97.921875 31.382812 C 94.035156 31.480469 90.402344 29.460938 88.429688 26.109375 C 86.464844 22.753906 86.46875 18.597656 88.449219 15.25 C 90.433594 11.90625 94.074219 9.902344 97.960938 10.015625 C 101.304688 9.988281 104.476562 11.5 106.5625 14.117188 L 102.683594 17.546875 C 101.585938 16.027344 99.835938 15.117188 97.960938 15.089844 C 96.476562 15.085938 95.054688 15.683594 94.015625 16.742188 C 92.976562 17.800781 92.410156 19.234375 92.449219 20.71875 C 92.398438 22.226562 92.980469 23.6875 94.050781 24.746094 C 95.125 25.808594 96.589844 26.371094 98.097656 26.304688 C 100.074219 26.265625 101.90625 25.253906 102.988281 23.597656 Z M 127.105469 27.699219 C 124.972656 30.082031 121.914062 31.421875 118.71875 31.378906 C 115.847656 31.511719 113.054688 30.433594 111.019531 28.40625 C 108.980469 26.378906 107.890625 23.589844 108.011719 20.71875 C 108.011719 15.003906 111.890625 10.011719 117.960938 10.011719 C 123.609375 10.011719 127.613281 14.792969 127.613281 20.503906 C 127.617188 21.027344 127.574219 21.550781 127.488281 22.070312 L 113.320312 22.070312 C 113.589844 24.894531 116.007812 27.027344 118.84375 26.9375 C 120.808594 26.878906 122.667969 26.023438 123.988281 24.566406 Z M 122.007812 18.054688 C 121.765625 16.003906 120.027344 14.460938 117.960938 14.457031 C 115.824219 14.445312 113.980469 15.957031 113.574219 18.054688 Z M 129.792969 30.960938 L 129.792969 10.4375 L 135.0625 10.4375 L 135.0625 12.085938 C 136.6875 10.742188 138.730469 10.007812 140.835938 10.015625 C 143.570312 10.007812 146.164062 11.21875 147.917969 13.316406 C 149.496094 15.367188 150.25 17.9375 150.027344 20.515625 L 150.027344 30.960938 L 144.546875 30.960938 L 144.546875 20.078125 C 144.699219 18.679688 144.257812 17.28125 143.324219 16.230469 C 142.488281 15.457031 141.382812 15.046875 140.246094 15.085938 C 138.292969 15.144531 136.464844 16.074219 135.273438 17.625 L 135.273438 30.960938 Z M 129.792969 30.960938 "/>
<path fill-rule="evenodd" fill="rgb(38.431373%, 84.705882%, 30.588235%)" fill-opacity="1" d="M 164.136719 10.015625 C 159.21875 10.003906 154.789062 12.996094 152.96875 17.566406 C 151.144531 22.136719 152.292969 27.355469 155.871094 30.734375 C 156.71875 31.539062 158.027344 31.609375 158.953125 30.894531 C 161.988281 28.636719 166.148438 28.636719 169.183594 30.894531 C 170.117188 31.613281 171.4375 31.535156 172.28125 30.714844 C 175.828125 27.347656 176.976562 22.167969 175.1875 17.617188 C 173.398438 13.066406 169.027344 10.058594 164.136719 10.011719 M 164.066406 28 C 162.46875 28.042969 160.925781 27.429688 159.796875 26.296875 C 158.664062 25.167969 158.050781 23.625 158.09375 22.027344 C 158.09375 18.726562 160.769531 16.054688 164.066406 16.054688 C 165.652344 16.054688 167.171875 16.679688 168.292969 17.800781 C 169.414062 18.921875 170.042969 20.441406 170.042969 22.027344 C 170.085938 23.625 169.46875 25.167969 168.339844 26.296875 C 167.210938 27.429688 165.664062 28.046875 164.066406 28 "/>
<path fill-rule="evenodd" fill="rgb(0%, 0%, 0%)" fill-opacity="1" d="M 186.859375 30.960938 L 182.777344 30.960938 L 174.640625 10.4375 L 180.113281 10.4375 L 184.574219 22.164062 L 188.949219 10.4375 L 193.523438 10.4375 L 197.859375 22.164062 L 202.359375 10.4375 L 207.832031 10.4375 L 199.695312 30.960938 L 195.613281 30.960938 L 191.238281 19.273438 Z M 186.859375 30.960938 "/>
<path fill-rule="nonzero" fill="rgb(0%, 0%, 0%)" fill-opacity="1" d="M 207.894531 28.640625 L 207.433594 28.640625 L 207.433594 29.507812 L 207.039062 29.507812 L 207.039062 27.132812 L 208 27.132812 C 208.203125 27.128906 208.398438 27.210938 208.542969 27.355469 C 208.683594 27.5 208.765625 27.691406 208.765625 27.894531 C 208.761719 28.199219 208.574219 28.46875 208.292969 28.585938 L 208.832031 29.511719 L 208.40625 29.511719 Z M 207.433594 28.289062 L 208 28.289062 C 208.21875 28.289062 208.398438 28.109375 208.398438 27.890625 C 208.398438 27.667969 208.222656 27.488281 208 27.488281 L 207.4375 27.488281 Z M 207.839844 26.15625 C 209.058594 26.15625 210.046875 27.140625 210.050781 28.359375 C 210.050781 29.414062 209.308594 30.320312 208.277344 30.527344 C 207.242188 30.730469 206.210938 30.175781 205.808594 29.203125 C 205.523438 28.523438 205.601562 27.75 206.007812 27.136719 C 206.414062 26.523438 207.101562 26.15625 207.839844 26.15625 M 207.839844 25.808594 C 206.425781 25.808594 205.28125 26.957031 205.28125 28.371094 C 205.28125 29.785156 206.429688 30.929688 207.84375 30.929688 C 209.257812 30.929688 210.402344 29.78125 210.402344 28.367188 C 210.402344 26.953125 209.253906 25.808594 207.839844 25.808594 M 207.839844 25.808594 "/>
</svg>

<svg role="img" viewBox="0 0 211.2 32" height="32" width="211.2" xmlns="http://www.w3.org/2000/svg"><path d="M51.234 10.227a8.981 8.981 0 0 0-5.773 2.078v-1.867h-5.27V30.96h5.48V17.84a6.498 6.498 0 0 1 4.974-2.54 5.484 5.484 0 0 1 2.199.329v-5.262a9.265 9.265 0 0 0-1.61-.14M3.457 24.699a8.56 8.56 0 0 0 5.598 2.028c1.476 0 2.613-.72 2.613-1.735 0-3.09-9.906-1.988-9.906-8.59 0-3.933 3.797-6.386 7.84-6.386 2.457.004 4.863.726 6.914 2.078l-2.563 3.969a6.925 6.925 0 0 0-3.922-1.395c-1.515 0-2.781.594-2.781 1.652 0 2.664 9.906 1.606 9.906 8.715 0 3.938-3.84 6.348-8.136 6.348A14.084 14.084 0 0 1 .8 28.64Zm34.395-4.191c0-5.711-4-10.492-9.657-10.492-6.07 0-9.949 4.992-9.949 10.703a10.253 10.253 0 0 0 3.008 7.691 10.26 10.26 0 0 0 7.707 2.973 11.069 11.069 0 0 0 8.387-3.68L34.23 24.57a7.235 7.235 0 0 1-5.144 2.371 5.387 5.387 0 0 1-5.527-4.863h14.168a8.81 8.81 0 0 0 .125-1.57m-14.04-2.453a4.44 4.44 0 0 1 4.383-3.598 4.085 4.085 0 0 1 4.051 3.598Zm42.09 4.906 5.61-12.523h5.691L67.801 30.96h-3.793l-9.403-20.523h5.692ZM81.805.8a3.516 3.516 0 0 1 3.457 3.562 3.514 3.514 0 0 1-2.215 3.227 3.54 3.54 0 0 1-3.832-.817A3.523 3.523 0 0 1 81.805.8m-2.743 9.637h5.481V30.96h-5.48ZM107.2 26.77a10.812 10.812 0 0 1-9.277 4.613 10.703 10.703 0 0 1-9.492-5.274 10.712 10.712 0 0 1 .02-10.859 10.697 10.697 0 0 1 9.51-5.234 10.886 10.886 0 0 1 8.603 4.101l-3.88 3.43a5.93 5.93 0 0 0-4.722-2.457 5.51 5.51 0 0 0-3.945 1.652 5.47 5.47 0 0 0-1.567 3.977 5.41 5.41 0 0 0 5.649 5.586 5.982 5.982 0 0 0 4.89-2.707Zm19.906.93a11.054 11.054 0 0 1-8.386 3.679 10.237 10.237 0 0 1-7.7-2.973 10.23 10.23 0 0 1-3.007-7.687c0-5.715 3.879-10.707 9.949-10.707 5.648 0 9.652 4.781 9.652 10.492a9.175 9.175 0 0 1-.125 1.566H113.32a5.38 5.38 0 0 0 5.524 4.868 7.235 7.235 0 0 0 5.144-2.372Zm-5.097-9.645a4.075 4.075 0 0 0-4.047-3.598 4.444 4.444 0 0 0-4.387 3.598Zm7.785 12.906V10.438h5.27v1.648a9.01 9.01 0 0 1 5.773-2.07 9.197 9.197 0 0 1 7.082 3.3 10.35 10.35 0 0 1 2.11 7.2V30.96h-5.481V20.078a4.979 4.979 0 0 0-1.223-3.848 4.312 4.312 0 0 0-3.078-1.144 6.517 6.517 0 0 0-4.973 2.539v13.336Zm0 0"/><path d="M164.137 10.016a11.99 11.99 0 0 0-11.168 7.55 11.993 11.993 0 0 0 2.902 13.168 2.372 2.372 0 0 0 3.082.16 8.573 8.573 0 0 1 10.23 0 2.37 2.37 0 0 0 3.098-.18 12.002 12.002 0 0 0 2.906-13.097 11.995 11.995 0 0 0-11.05-7.605M164.067 28a5.802 5.802 0 0 1-4.27-1.703 5.802 5.802 0 0 1-1.703-4.27c0-3.3 2.676-5.972 5.972-5.972a5.99 5.99 0 0 1 4.227 1.746 5.975 5.975 0 0 1 1.75 4.226 5.817 5.817 0 0 1-1.703 4.27A5.795 5.795 0 0 1 164.066 28" fill="rgb(38.431373%, 84.705882%, 30.588235%)" fill-rule="evenodd"/><path d="M186.86 30.96h-4.083l-8.136-20.522h5.472l4.461 11.726 4.375-11.727h4.574l4.336 11.727 4.5-11.727h5.473l-8.137 20.524h-4.082l-4.375-11.688Zm21.035-2.32h-.461v.868h-.395v-2.375H208a.75.75 0 0 1 .543.222c.14.145.223.336.223.54a.761.761 0 0 1-.473.69l.539.927h-.426Zm-.461-.35H208a.401.401 0 1 0 0-.802h-.562Zm.406-2.134a2.21 2.21 0 0 1 2.21 2.203 2.211 2.211 0 0 1-1.773 2.168 2.21 2.21 0 0 1-2.468-1.324 2.187 2.187 0 0 1 .199-2.066 2.194 2.194 0 0 1 1.832-.98m0-.348a2.56 2.56 0 1 0 .004 5.12 2.56 2.56 0 0 0-.004-5.12m0 0"/></svg>
